Sources/FrostedUI/Resources/Icons.xcassets/unpin20.imageset/unpin-20.svg

<svg width="20" height="20" viewBox="0 0 20 20" fill="none" xmlns="http://www.w3.org/2000/svg" data-fui-icon="true">
  <path
    d="M1.21973 1.21973C1.51262 0.926862 1.98739 0.926843 2.28027 1.21973L18.7803 17.7197C19.0731 18.0126 19.0731 18.4874 18.7803 18.7803C18.4874 19.0732 18.0126 19.0731 17.7197 18.7803L14.0273 15.0879C13.9711 15.0316 13.8948 15 13.8152 15H11.05C10.8843 15 10.75 15.1343 10.75 15.3V18.25C10.75 18.6641 10.4141 18.9999 10 19C9.58583 19 9.25 18.6642 9.25 18.25V15.3C9.25 15.1343 9.11569 15 8.95 15H5.49316C3.5706 14.9999 2.3392 12.9532 3.24023 11.2549L4.85449 8.21289C4.9501 8.03254 5 7.83108 5 7.62695V6.18481C5 6.10525 4.96839 6.02894 4.91213 5.97268L1.21973 2.28027C0.926833 1.98738 0.926833 1.51262 1.21973 1.21973ZM12.4502 1C13.8583 1.0002 14.9999 2.14169 15 3.5498V7.62695C15 7.8311 15.0499 8.03253 15.1455 8.21289L16.7598 11.2549C17.1069 11.9092 17.1368 12.6149 16.933 13.2356C16.8696 13.4287 16.6275 13.4674 16.4838 13.3236L15.636 12.4758C15.5837 12.4235 15.5543 12.3533 15.5425 12.2802C15.5251 12.1718 15.4904 12.0632 15.4346 11.958L13.8203 8.91602C13.6098 8.51913 13.5 8.07622 13.5 7.62695V3.5498C13.4999 2.97012 13.0299 2.5002 12.4502 2.5H7.5498C7.23817 2.50008 6.95821 2.63593 6.76593 2.85161C6.60516 3.03194 6.28512 3.12476 6.11436 2.95386L5.54531 2.38432C5.44717 2.28609 5.4278 2.13215 5.51114 2.0211C5.9761 1.40157 6.71558 1.00009 7.5498 1H12.4502ZM6.5 7.62695C6.5 8.0762 6.39019 8.51914 6.17969 8.91602L4.56543 11.958C4.19447 12.6573 4.70157 13.4999 5.49316 13.5H11.7152C11.9825 13.5 12.1163 13.1769 11.9273 12.9879L6.54696 7.6075C6.52963 7.59018 6.5 7.60245 6.5 7.62695Z"
    fill="currentColor"
  />
</svg>

<svg xmlns="http://www.w3.org/2000/svg" width="20" height="20" fill="none" data-fui-icon="true" viewBox="0 0 20 20"><path fill="currentColor" d="M1.22 1.22a.75.75 0 0 1 1.06 0l16.5 16.5a.75.75 0 0 1-1.06 1.06l-3.693-3.692a.3.3 0 0 0-.212-.088H11.05a.3.3 0 0 0-.3.3v2.95a.75.75 0 0 1-1.5 0V15.3a.3.3 0 0 0-.3-.3H5.493c-1.922 0-3.154-2.047-2.253-3.745l1.614-3.042C4.95 8.033 5 7.83 5 7.627V6.185a.3.3 0 0 0-.088-.212L1.22 2.28a.75.75 0 0 1 0-1.06M12.45 1A2.55 2.55 0 0 1 15 3.55v4.077c0 .204.05.406.146.586l1.614 3.042c.347.654.377 1.36.173 1.98-.063.194-.305.232-.45.089l-.847-.848a.35.35 0 0 1-.093-.196 1 1 0 0 0-.108-.322L13.82 8.916c-.21-.397-.32-.84-.32-1.29V3.551c0-.58-.47-1.05-1.05-1.05h-4.9c-.312 0-.592.136-.784.352-.16.18-.48.273-.652.102l-.569-.57a.28.28 0 0 1-.034-.363A2.54 2.54 0 0 1 7.55 1zM6.5 7.627c0 .45-.11.892-.32 1.289l-1.615 3.042a1.05 1.05 0 0 0 .928 1.542h6.222a.3.3 0 0 0 .212-.512l-5.38-5.38a.028.028 0 0 0-.047.019"/></svg>
